X:460
T:Maxwell's Rant
S:Colin Hume's website,  colinhume.com  - chords can also be printed below the stave.
Q:1/2=116
M:2/2
L:1/8
K:G
P:A
|: ef | "G"g2G2 B2G2 | "D7"F2A2 A2ef | "G"g2G2 "D7"B2d2 | "G"g6 ef |\
"G"g2G2 B2G2 | "D7"F2A2 A2GF | "C"E2G2 "D7"F2A2 | "G"G6 :|
P:B
|: d2 | "G"g3a "Em"b2g2 | "Am"agfe "D7"d2d2 | "G"g3a "Em"g2b2 | "Am"a4- "D7"a2d2 |\
"G"g3a "Em"b2g2 | "Am"agfe "D7"d2ga | "Em"b2g2 "D7"a2f2 | "G"g6 :|

